Yaru++/actions/symbolic/tab-new-symbolic.svg

<svg height="16" width="16" xmlns="http://www.w3.org/2000/svg"><g fill="#808080"><path d="m5.994 3c-1.258.015-2.179-.03-2.932.385a1.88 1.88 0 0 0 -.837.998c-.165.437-.225.96-.225 1.617v7h-1v1h2v-8c0-.592.063-1.006.16-1.266.098-.26.202-.371.385-.472.365-.202 1.195-.247 2.455-.262h5c1.259.015 2.087.06 2.453.262.184.1.29.212.387.472s.16.674.16 1.266v8h2v-1h-1v-7c0-.658-.06-1.179-.225-1.617a1.88 1.88 0 0 0 -.838-.998c-.752-.416-1.673-.37-2.931-.385h-5.008z"/><path d="m8 7v2h-2v1h2v2h1v-2h2v-1h-2v-2z"/></g></svg>

<svg height="16" width="16" xmlns="http://www.w3.org/2000/svg">
    <g color="#000" font-weight="400" font-family="sans-serif" white-space="normal" fill="gray">
        <path d="M5.994 3c-1.258.015-2.179-.03-2.932.385a1.88 1.88 0 0 0-.837.998C2.06 4.82 2 5.343 2 6v7H1v1h2V6c0-.592.063-1.006.16-1.266.098-.26.202-.371.385-.472C3.91 4.06 4.74 4.015 6 4h5c1.259.015 2.087.06 2.453.262.184.1.29.212.387.472.097.26.16.674.16 1.266v8h2v-1h-1V6c0-.658-.06-1.179-.225-1.617a1.88 1.88 0 0 0-.838-.998c-.752-.416-1.673-.37-2.931-.385H5.998z" style="line-height:normal;font-variant-ligatures:normal;font-variant-position:normal;font-variant-caps:normal;font-variant-numeric:normal;font-variant-alternates:normal;font-feature-settings:normal;text-indent:0;text-align:start;text-decoration-line:none;text-decoration-style:solid;text-decoration-color:#000;text-transform:none;text-orientation:mixed;shape-padding:0;isolation:auto;mix-blend-mode:normal;marker:none" overflow="visible"/>
        <path d="M8 7v2H6v1h2v2h1v-2h2V9H9V7z" style="line-height:normal;text-indent:0;text-align:start;text-decoration-line:none;text-decoration-style:solid;text-decoration-color:#000;text-transform:none;isolation:auto;mix-blend-mode:normal;marker:none" overflow="visible"/>
    </g>
</svg>
